!!!OTL: ES IST EIN SCHNITTER DER HEISST TOD
!!!ARE: Europa, Mitteleuropa, Deutschland
!!!SCT: B0772
!!!YEM: Copyright 1995, estate of Helmut Schaffrath.
**kern
*ICvox
*Ivox
*M4/4
*k[f#]
*G:
{8d
=1
4g
4g
4f#
4f#
=2
4e
4e
4.d}
{8d
=3
4.g
8g
4f#
4g
=4
4a
4a
4b
8r}
{8b
=5
4b
8a
8g
4a
8d
8d
=6
4b
8a
8g
4a
8d}
{8d
=7
4b
8a
8b
4cc
8a
8a
=8
4a
8g
8a
4b
8g
8r}
=9
{4.dd
8b
4g
4g
=10
4a
4a
2b}
=11
{4dd
8gg
8dd
4b
4dd
=12
4cc
4a
4g
8r}
==
!!!AGN: Trost - Lied, Tod, religioes
!!!ONB: ESAC (Essen Associative Code) Database: BOEHME
!!!AMT: simple quadruple
!!!AIN: vox
!!!EED: Helmut Schaffrath
!!!EEV: 1.0
*-
